~ahhooBuf = Buffer.read(s, (~clipsLocation ++ "/ahhoo.wav").resolveRelative);
~fireBuf = Buffer.read(s, (~clipsLocation ++ "/fire.wav").resolveRelative);
~landingBuf = Buffer.read(s, (~clipsLocation ++ "/landing.wav").resolveRelative);
~launchBuf = Buffer.read(s, (~clipsLocation ++ "/launch.wav").resolveRelative);